X: 1
T: Castle, The
C: Sean Ryan
M: 6/8
R: Jig
L: 1/8
S: https://www.youtube.com/watch?v=tgRaisinsPo
K: Am
|:c2A BAG|AGE DB,G,|~A,3 EDB,|DEG AGE|
cBA BAG|AGE DB,G,|A,2 E EDE|DB,G, A,2 B:|
|:cBA a3|bag edB|GBd ~g3|GBd cBA|
~c3 ~d3|ede gab|age dBG|EFG A2 B:| 
